X:23
T:Sleggs. ThoH.023
Q:1/4=100
M:C
L:1/8
B:Thompson's Compleat Collection of 120 Favourite Hornpipes.
Z:Village Music Project, Simon Wilson 2016
O:England.
K:Gm
g4(bagf)|(gedc) (fdcB)|(ecBA) (dBAG)|(bdc=B) (cbag)|
(acBA) (Bagf)|(gBcB) (Agfe)|fABA Gced|cBAGG2^F2||
(def2)(=Bcd2)|Gfed edc2|(cde2)(ABc2)|Fedc BAB2|
dBGB DGBD|cBc4d2|cBAG Fedc|BAB4(g/a/b)|
a2c4BA|Bdg4fe|d^FGcB2TA2|G8:|

